X:1265
T:the Dandy Dancer
M:6/8
O:Scotland
R:Jig
Z:Richard Robinson 
%%TUNEURL: http://www.leeds.ac.uk/music/Info/RRTuneBk/gettune/0000098b.html
%%ID:0000098b
K:A
e/d/|\
c2A AGA|EAA cBA|dBB fBB|gfe dcB|\
c2A AGA|EAA cBA|dcB gfg|(a3 a2)::
g|\
aec Ace|agf edc|dBB fBB|gfe dcB|\
aec Ace|agf edc|dcB gfg|(a3 a2):|
